X: 4
T: Green Grow The Rushes
R: barndance
M: 4/4
L: 1/8
K: Gmaj
|: Gzgf ged2 | eaag agef | gded BdBA | GBAG EGDE :||: G2BG dGBG | A2Bd efgz | G2BG dGBG | ABAG EGDE :|


Tune 1936	Setting 21319

